X:2
T: One-Horned Sheep
I: One-Horned Sheep	J-64	G	jig
Z: Transcribed to abc by Mary Lou Knack
R: jig
M: 6/8
K: G
"G"g2G GFG| "C"EGG "G"DGG| g2G GFG| "Am"EAG "D"FED|
"G"g2G GFG| "C"EGG "G"DGG| "C"EGG "D"FGA| "G"BGF G3 :|
|: "G"GBd dBd| GAB d2D| GBd dcB| "D"cdc A2D|
"G"GBd dBd| GAB def| "C"gfe dBG |1 "D"ABA G2D :|2 "D"ABc def |]
%%text Roaring Jelly J-64

